F1 Grump/assets/track outlines/MONZA - White.svg

<svg xmlns="http://www.w3.org/2000/svg" viewBox="0 0 3960.36 2610.49"><defs><style>.cls-1{fill:#fff;}</style></defs><title>MONZA - White</title><g id="Layer_2" data-name="Layer 2"><g id="Layer_1-2" data-name="Layer 1"><path class="cls-1" d="M1432.05,2606.83V2353.66h50.86l71.7,214,71.71-214h50.85v253.17H1649V2383.66h-5.12l-73.54,214h-31.46l-73.53-214h-5.13v223.17Z"/><path class="cls-1" d="M1929.24,2482.08q0,67.68-21.59,98t-78.47,30.37q-56.9,0-78.48-31.1t-21.58-97.86q0-66.77,22-99.15T1829,2350q56,0,78.11,32.19T1929.24,2482.08Zm-171.22-.74q0,55.62,14.63,79.94t56.53,24.33q41.88,0,56.34-23.78t14.45-79.75q0-56-15-81.59t-56.16-25.61q-41.16,0-56,25.43T1758,2481.34Z"/><path class="cls-1" d="M1980.82,2606.83V2353.66h52.68L2130.45,2582h7.68V2353.66h27.8v253.17h-51.58l-98.41-228.29h-7v228.29Z"/><path class="cls-1" d="M2212.76,2378.54v-24.88h164.63v32.93l-132.44,188V2582h132.44v25.25H2212.76v-32.56l132.07-188v-8.05Z"/><path class="cls-1" d="M2401.9,2606.83l69.51-253.17h61.46l69.51,253.17h-27.8l-18.29-65.12H2448l-18.3,65.12Zm90.73-229-38.41,138.66h95.85l-38.42-138.66Z"/><path class="cls-1" d="M2840.56,2088.48c-225-4.42-479.58-12.12-716.15-19.28-263.29-7.94-490.68-14.82-621.88-15.55l-.91,0c-42.26-.84-52-45.76-57.92-72.68-.61-2.9-1.42-6.54-2.28-10.14-88.8,39.33-187.26,77.25-389.89,76.83-147.38-.43-358.73-18.15-489.72-168.67-126.57-145.38-192.52-299.72-220.48-516-8.13-62.81-15.61-131.17-22.84-197.27C304,1033.93,290.39,909.45,272.7,829.28c-1.82-8.14-1.82-8.14-16.57-12.5-23.76-7-68-20-74.1-94-3.84-46.83-52.16-156.48-94.79-253.21C53,391.87,20.71,318.53,4.58,265.2-6.2,229.65,2.21,186.89,28.3,144.67c19.66-31.87,53.1-68.09,87.86-74C203.53,55.88,272.26,44,326.94,34.55,515.68,1.93,539.88-2.31,584.3.88,639.51,4.79,695.81,92.24,820.55,306c25.37,43.5,49.37,84.61,71.68,120.82C1017.16,629.49,1248,851.24,1410.8,1000.38c66.53,61,132.78,133.24,196.83,203.11,75.33,82.16,146.47,159.73,198.14,195.55,12,8.37,30.25,6.47,61.53,2.46,33.76-4.37,75.8-9.76,124.07,3.55,32.08,8.86,58.17,34.57,83.43,59.46,19.2,18.94,43.1,42.49,57.68,43.32,161.15,8.94,503.38,22.54,834.33,35.7,334,13.27,679.37,27,836.54,35.88,82.07,4.62,151.58,94,156.66,167.73,5.36,77.11-51.67,194.48-156.28,257.52-116.77,70.33-322.67,83.22-527.8,86.68-115.22,1.93-267,.45-435.37-2.86m-1221.38-107c132.16,2.62,309.7,8,507.46,13.93,412.75,12.46,880.58,26.66,1148.07,22.13,185.45-3.12,388.85-14.6,490.95-76.1,90.82-54.7,123.45-150.25,120.75-189.26-2.78-40.46-46.43-96.87-87.22-99.18-156.56-8.79-501.62-22.56-835.32-35.81-331.26-13.16-673.75-26.79-835.51-35.76-42.42-2.35-75.89-35.33-105.41-64.43-17.68-17.41-37.73-37.14-51.23-40.93-34-9.4-65-5.41-95-1.51-37.89,4.89-77,9.93-113-15-58.38-40.48-132.25-121-210.44-206.32-63-68.71-128.16-139.76-192.32-198.55C1194.91,902.6,959.17,676,829.41,465.42c-22.79-37-47-78.44-72.62-122.34C701.82,248.87,610.25,92,576.42,74.19c-34.08-1.94-64.32,3.14-237,33-54.73,9.46-123.51,21.33-211,36.19-17.31,5.83-63.79,66.07-53.39,100.37,14.87,49,47.78,123.74,79.6,196,49.34,112,95.94,217.74,100.82,276.93C257.46,740.2,260,741,277,745.94c19.72,5.83,56.5,16.68,67.7,67.32,18.62,84.09,32.44,210.49,47.12,344.33,7.2,65.74,14.66,133.74,22.69,195.84,32.62,252.44,121,382.87,203,477.16,84.69,97.3,222.69,143,434.24,143.35,201.47.4,287.6-38.11,378.81-78.93,15.82-7.1,32.32-7,46.42.11,26.44,13.35,33,43.57,38.83,70.23.94,4.36,2.15,9.93,3.39,14.74,29.38.23,62.89.75,100,1.49M579,74.45h.12a.24.24,0,0,0-.12,0"/></g></g></svg>

<svg width="3960" height="2092" viewBox="0 0 3960 2092" fill="none" xmlns="http://www.w3.org/2000/svg">
<g clip-path="url(#clip0_13_780)">
<path d="M2840.56 2088.48C2615.56 2084.06 2360.98 2076.36 2124.41 2069.2C1861.12 2061.26 1633.73 2054.38 1502.53 2053.65H1501.62C1459.36 2052.81 1449.62 2007.89 1443.7 1980.97C1443.09 1978.07 1442.28 1974.43 1441.42 1970.83C1352.62 2010.16 1254.16 2048.08 1051.53 2047.66C904.15 2047.23 692.8 2029.51 561.81 1878.99C435.24 1733.61 369.29 1579.27 341.33 1362.99C333.2 1300.18 325.72 1231.82 318.49 1165.72C304 1033.93 290.39 909.45 272.7 829.28C270.88 821.14 270.88 821.14 256.13 816.78C232.37 809.78 188.13 796.78 182.03 722.78C178.19 675.95 129.87 566.3 87.2397 469.57C52.9997 391.87 20.7097 318.53 4.57969 265.2C-6.20031 229.65 2.20969 186.89 28.2997 144.67C47.9597 112.8 81.3997 76.58 116.16 70.67C203.53 55.88 272.26 44 326.94 34.55C515.68 1.93002 539.88 -2.30998 584.3 0.880024C639.51 4.79002 695.81 92.24 820.55 306C845.92 349.5 869.92 390.61 892.23 426.82C1017.16 629.49 1248 851.24 1410.8 1000.38C1477.33 1061.38 1543.58 1133.62 1607.63 1203.49C1682.96 1285.65 1754.1 1363.22 1805.77 1399.04C1817.77 1407.41 1836.02 1405.51 1867.3 1401.5C1901.06 1397.13 1943.1 1391.74 1991.37 1405.05C2023.45 1413.91 2049.54 1439.62 2074.8 1464.51C2094 1483.45 2117.9 1507 2132.48 1507.83C2293.63 1516.77 2635.86 1530.37 2966.81 1543.53C3300.81 1556.8 3646.18 1570.53 3803.35 1579.41C3885.42 1584.03 3954.93 1673.41 3960.01 1747.14C3965.37 1824.25 3908.34 1941.62 3803.73 2004.66C3686.96 2074.99 3481.06 2087.88 3275.93 2091.34C3160.71 2093.27 3008.93 2091.79 2840.56 2088.48ZM1619.18 1981.48C1751.34 1984.1 1928.88 1989.48 2126.64 1995.41C2539.39 2007.87 3007.22 2022.07 3274.71 2017.54C3460.16 2014.42 3663.56 2002.94 3765.66 1941.44C3856.48 1886.74 3889.11 1791.19 3886.41 1752.18C3883.63 1711.72 3839.98 1655.31 3799.19 1653C3642.63 1644.21 3297.57 1630.44 2963.87 1617.19C2632.61 1604.03 2290.12 1590.4 2128.36 1581.43C2085.94 1579.08 2052.47 1546.1 2022.95 1517C2005.27 1499.59 1985.22 1479.86 1971.72 1476.07C1937.72 1466.67 1906.72 1470.66 1876.72 1474.56C1838.83 1479.45 1799.72 1484.49 1763.72 1459.56C1705.34 1419.08 1631.47 1338.56 1553.28 1253.24C1490.28 1184.53 1425.12 1113.48 1360.96 1054.69C1194.91 902.6 959.17 676 829.41 465.42C806.62 428.42 782.41 386.98 756.79 343.08C701.82 248.87 610.25 92 576.42 74.19C542.34 72.25 512.1 77.33 339.42 107.19C284.69 116.65 215.91 128.52 128.42 143.38C111.11 149.21 64.6297 209.45 75.0297 243.75C89.8997 292.75 122.81 367.49 154.63 439.75C203.97 551.75 250.57 657.49 255.45 716.68C257.46 740.2 260 741 277 745.94C296.72 751.77 333.5 762.62 344.7 813.26C363.32 897.35 377.14 1023.75 391.82 1157.59C399.02 1223.33 406.48 1291.33 414.51 1353.43C447.13 1605.87 535.51 1736.3 617.51 1830.59C702.2 1927.89 840.2 1973.59 1051.75 1973.94C1253.22 1974.34 1339.35 1935.83 1430.56 1895.01C1446.38 1887.91 1462.88 1888.01 1476.98 1895.12C1503.42 1908.47 1509.98 1938.69 1515.81 1965.35C1516.75 1969.71 1517.96 1975.28 1519.2 1980.09C1548.58 1980.32 1582.09 1980.84 1619.2 1981.58M579 74.45H579.12C579.08 74.4399 579.039 74.4399 579 74.45Z" fill="white"/>
</g>
<defs>
<clipPath id="clip0_13_780">
<rect width="3960" height="2092" fill="white"/>
</clipPath>
</defs>
</svg>
